X:1
T:Recife, 10.7.10.7.10.7 D
T:Recife, 10.7.10.7.10.7 D
T:E. B. Smith, 1880
T:Public Domain Courtesy of the Cyber Hymnal™
C:E. B. Smith, 1880
Z:Public Domain
Z:Courtesy of the Cyber Hymnal™
%%score 1 ( 2 3 )
L:1/8
Q:1/4=88
M:6/8
K:Bb
V:1 treble 
V:2 bass 
V:3 bass 
V:1
 [DF][DF][DF] [^CG][CG][CG] | [DF][DF][^C=E] [DF]3 | [B,D][DF][FB] [Bd][FB][Fc] | [FB]6 | %4
 [Fd][Fd][Fd] [Ge][Ge][Ge] | [Fd][DB][Ec] [Fd]3 | [DB][FA][EG] [DF][CA][Ec] | [DB]6 | %8
 [GB][FA][EG] [EG][DF][EG] | [GB][FA][EG] [DF]3 | [CF][C=E][CF] [CA][CG][CE] | [CF]6 | %12
 [DF][DF][DF] [^CG][CG][CG] | [DF][DF][^C=E] [DF]3 | [DF][FB][Fd] [Af][Ac][Ad] | [FB]6 | %16
 [Fd]>[Fd][Fd] [Ge]>[Ge][Ge] | [Fd][DB][Ec] [Fd]3 | [Bd]>[Bd][Bd] [B=e][Bd][Be] | [Af]6 | %20
 [FBf]>[Fe][Fd] [Fd]>[Ec][DB] | [Ec][EB][EA] [EG]3 | [DF][FB][Fd] [Fc][Af]>[FA] | [FB]6 |] %24
V:2
 [B,,F,][B,,F,][B,,F,] [B,,=E,][B,,E,][B,,E,] | [B,,F,][B,,F,][B,,G,] [B,,F,]3 | %2
 F,[F,B,][F,D] [F,F][F,D][F,E] | [B,,D]6 | B,B,B, B,B,B, | B,B,B, B,3 | %6
 [B,,B,][B,,B,][B,,B,] F,F,[F,A,] | [B,,B,]6 | [E,B,][E,B,][E,B,] [E,B,][E,B,][E,B,] | %9
 [E,B,][E,B,][E,B,] [B,,B,]3 | [C,A,][C,G,][C,A,] [C,C][C,B,][C,G,] | [F,A,]6 | %12
 [B,,B,][B,,B,][B,,F,] [B,,=E,][B,,E,][B,,E,] | [B,,F,][B,,F,][B,,G,] [B,,F,]3 | %14
 [F,B,][F,D][F,B,] [F,C][F,E][F,F] | [B,,D]6 | B,>B,B, B,>B,B, | B,B,B, B,3 | %18
 [G,D]>[G,D][G,D] CC[C,C] | [F,C]6 | [B,,D]>[B,,C][B,,B,] [B,,B,]>[B,,B,][B,,B,] | %21
 [E,G,][E,G,][E,A,] [E,B,]3 | [F,B,][F,D][F,B,] [F,A,][F,C]>[F,E] | [B,,D]6 |] %24
V:3
 x6 | x6 | F, x5 | x6 | B,B,B, B,B,B, | B,B,B, B,3 | x3 F,F, x | x6 | x6 | x6 | x6 | x6 | x6 | x6 | %14
 x6 | x6 | B,>B,B, B,>B,B, | B,B,B, B,3 | x3 CC x | x6 | x6 | x6 | x6 | x6 |] %24

